X: 1
M: 4/4
L: 1/4
%%staves [S A T]
V: S name="Soprano" sname="S"
V: A name="Alto"    sname="A"
V: T name="Tenor"   sname="T"
K: G
%%staffnonote 0
[V: S] GABc|GABc|GABc|B3z|
[V: A] GGGG|BBBB|GGGG|D3z|
[V: T] GDGD|GDGD|GGDD|G3z|
%
[V: S] GABc|dcBA|GABc|d3z|
[V: A] z4|z4|z4|z4|
[V: T] z4|z4|z4|z4|
%
[V: S] GABc|GABc|GABc|B3z|
[V: A] GGGG|BBBB|GGGG|D3z|
[V: T] GDGD|GDGD|GGDD|G3z|
